src/icons/svg/terminal.svg

<!--character:E196-->
<svg xmlns="http://www.w3.org/2000/svg" width="24" height="24" viewBox="0 0 24 24"><path fill-rule="evenodd" d="M7.494 5.5c-.266 0-.477.209-.494.469v.792c0 .408.331.739.74.739h8.521c.408 0 .739-.331.739-.739V6.24c0-.408-.331-.74-.739-.74H7.494zm5.1393 5.0552c0-.5403-.2353-1.0552-.6328-1.0552s-.6328.39021-.6328 1.0136v1.7093c0 .1662-.0792.2909-.198.374l-2.97113 1.7039c-.11884.0416-.19807.2078-.19807.3325v.2685c0 .2909.2773.4987.51499.374l2.57491-.9143c.1189-.0416.2773.0415.2773.2078v1.395c0 .1246-.0792.2909-.198.374l-.7527.4987c-.1585.0831-.263.2175-.2113.3155.0017.0033.0037.0083.006.0144.0134.0345.0411.1056.134.1273.0752.0175.3051-.0279.649-.0956.1563-.0308.3361-.0663.5357-.1026.0085-.0015.0194-.0035.0334-.0052.1103.2728.2558.4092.4367.4092.1805 0 .3252-.1359.434-.4078l.0361.0056c.1996.0363.3794.0718.5357.1026.3439.0677.5738.113.649.0956.0929-.0217.1206-.0929.134-.1274.0023-.006.0043-.011.006-.0143.0517-.098-.0528-.2324-.2113-.3155l-.7527-.4987c-.1188-.0831-.198-.168-.198-.3343v-1.395c0-.1246.1188-.2493.2773-.2078l2.5749.9144c.2377.1246.515-.0832.515-.3741v-.2684c0-.1663-.0792-.2909-.1981-.3741l-2.9711-1.7039c-.1188-.0831-.198-.2078-.198-.374v-1.6677zM19.74 5.5h1.521c.408 0 .739-.331.739-.739V4.24c0-.408-.331-.74-.739-.74H2.74c-.409 0-.74.332-.74.74v.521c0 .408.331.739.74.739h1.521c.408 0 .739.332.739.74V7c0 .277-.223.5-.5.5C3.12 7.5 2 8.62 2 10v7.761C2 19.274 3.227 20.5 4.74 20.5h14.521c1.513 0 2.739-1.226 2.739-2.739V10c0-1.38-1.119-2.5-2.5-2.5-.275 0-.5-.223-.5-.5v-.76c0-.408.331-.74.74-.74z" clip-rule="evenodd"/></svg>

<!--character:E196-->
<svg width="24" height="24" viewBox="0 0 24 24" xmlns="http://www.w3.org/2000/svg">
  <path d="M21.261 5.5H19.74C19.331 5.5 19 5.832 19 6.24V7C19 7.277 19.225 7.5 19.5 7.5C20.881 7.5 22 8.62 22 10V17.761C22 19.274 20.774 20.5 19.261 20.5H4.74C3.227 20.5 2 19.274 2 17.761V10C2 8.62 3.12 7.5 4.5 7.5C4.777 7.5 5 7.277 5 7V6.24C5 5.832 4.669 5.5 4.261 5.5H2.74C2.331 5.5 2 5.169 2 4.761V4.24C2 3.832 2.331 3.5 2.74 3.5H21.261C21.669 3.5 22 3.832 22 4.24V4.761C22 5.169 21.669 5.5 21.261 5.5ZM7.494 5.5C7.228 5.5 7.017 5.709 7 5.969V6.761C7 7.169 7.331 7.5 7.74 7.5H16.261C16.669 7.5 17 7.169 17 6.761V6.24C17 5.832 16.669 5.5 16.261 5.5H7.494ZM12.6332 10.5552C12.6332 10.0149 12.398 9.5 12.0005 9.5C11.603 9.5 11.3677 9.89021 11.3677 10.5136V12.2229C11.3677 12.3891 11.2885 12.5138 11.1697 12.5969L8.19856 14.3008C8.07972 14.3424 8.00049 14.5086 8.00049 14.6333V14.9018C8.00049 15.1927 8.27779 15.4005 8.51548 15.2758L11.0904 14.3615C11.2093 14.3199 11.3677 14.403 11.3677 14.5693V15.9643C11.3677 16.0889 11.2885 16.2552 11.1697 16.3383L10.417 16.837C10.2585 16.9201 10.1539 17.0545 10.2057 17.1525C10.2074 17.1558 10.2093 17.1608 10.2117 17.1668L10.2117 17.1669C10.2251 17.2014 10.2528 17.2725 10.3457 17.2942C10.4209 17.3117 10.6508 17.2663 10.9947 17.1986L10.9948 17.1986L10.9951 17.1985C11.1513 17.1677 11.331 17.1323 11.5304 17.096C11.5389 17.0945 11.5498 17.0925 11.5638 17.0908C11.6741 17.3636 11.8196 17.5 12.0005 17.5C12.181 17.5 12.3257 17.3641 12.4345 17.0922L12.4706 17.0978C12.67 17.1341 12.8497 17.1695 13.0059 17.2003L13.0061 17.2003L13.0062 17.2003C13.35 17.2681 13.5801 17.3134 13.6552 17.296C13.7482 17.2743 13.7759 17.2031 13.7893 17.1686L13.7893 17.1686C13.7916 17.1625 13.7936 17.1576 13.7953 17.1543C13.847 17.0563 13.7425 16.9219 13.584 16.8388L12.8313 16.3401C12.7125 16.257 12.6332 16.1721 12.6332 16.0058V14.6108C12.6332 14.4862 12.7521 14.3615 12.9105 14.403L15.4855 15.3174C15.7232 15.442 16.0005 15.2342 16.0005 14.9433V14.6749C16.0005 14.5086 15.9213 14.384 15.8024 14.3008L12.8313 12.5969C12.7125 12.5138 12.6332 12.3891 12.6332 12.2229V10.5552Z"/>
</svg>
